X:168
T:MacArthur Road
R:reel
M:4/4
L:1/8
K:Amix
|:A2(3AAA ABde|effd edBd|e2 ~e2 edBd|gd fd ed Bd|
A2(3AAA ABde|effd edBd|e2 ~e2 edBd|fdec d2 (3AAA:|
|:ad ~d2 adBd|a~d3 edBd|e2 ~e2 edBd|gdfd edBd|
ad ~d2 adBd|a~d3 edBd|e2 ~e2 edBd|gdfd edBd:|

